X: 26
T: STREETS OF LAREDO
S: "Community Dances Manual 6", EFDSS, Jack Hamilton ed., 1981 p.16
R: waltz
Z: 2010 John Chambers <jc:trillian.mit.edu>
M: 3/4
L: 1/8
K: G
%%text (play 6 times)
d2 |\
"G"d3 c B2 | "D7"c2 d2 c2 | "G"B3 A G2 | "G"G2 D4 |\
"Em(G)"G3 G G2 | "Am(C6)"A2 B2 c2 | "G(A7)"B2 A2 G2 | "D7"A4 d2 |
"G"d3 c B2 | "D7"c2 d2 c2 | "G"B3 A G2 | "G"G2 D4 |\
"Em"G3 G G2 | "Am"A2 B2 c2 | "D7"B2 F2 F2 | "G"G6 ||
"Am(D7)"A3 A A2 | "D7"A2 B2 c2 | "G"d3 e d2 | "G"B2 A2G2 |\
"Am(D7)"A3 A A2 | "D7"A2 B2 c2 | "G"d2 c2 B2 | "D7"A4 d2 |
"G"d3 c B2 | "D7"c2 d2 c2 | "G"B3 A G2 | "G"G2 D4 |\
"Em"G3 G G2 | "Am"A2 B2 c2 |1-5 "D7"B2 F2 F2 | "G"G6 :|6 "D7"d2 e2 f2 | "G"g4 |]

%%sep 2 1 500
%%sep 1 1 500

